X: 344
T: The stolen purse
C: anon.
O: Ireland
B: Francis O'Neill: "The Dance Music of Ireland" (1907) no. 344
R: Double jig
Z: Transcribed by Frank Nordberg - http://www.musicaviva.com
F: http://www.musicaviva.com/abc/tunes/ireland/oneill-1001/oneill-1001-034
4.abc
m: Tn3 = no/4n/m/4n
M: 6/8
L: 1/8
K: Glyd
G|FED (c/B/Ag)|fed cAG|(A/B/A)(G A)Bc|dcA ABG|FED (c/B/Ag)|fed cAF|TG3 GA
(F|D)GG G2:|
||B|cBA fAg|fed cAG|(A/B/A)(G A)Bc|dcA ABG|FED fAg|fed cAF|TG3 GA(F|D)GG
G2:|
||f|(a/g/f)a (g/f/e)g|fed cAG|(A/B/A)(G A)Bc|dcA Afg|(a/g/f)a (g/f/e)g|(f
/e/d)(f e)cA|TG3 GA(F|D)GG G2:|
W:
W:
W: From Musica Viva - http://www.musicaviva.com
W: the Internet center for free sheet music downloads.


